img/svg/16/trackback/null.svg

<svg xmlns="http://www.w3.org/2000/svg" viewBox="0 0 16 16" enable-background="new 0 0 16 16"><path d="M8 1c-3.866 0-7 3.134-7 7s3.134 7 7 7 7-3.134 7-7-3.134-7-7-7zm.953 10h-1.47v-2.868l-1.471 1.839-1.47-1.839v2.868h-1.471v-5h1.471l1.471 1.838 1.47-1.838h1.471l-.001 5zm2.55 0l-2.206-2.427h1.471v-2.573h1.471v2.573h1.471l-2.207 2.427z" fill="#ccc"/></svg>

<svg xmlns="http://www.w3.org/2000/svg" viewBox="0 0 16 16"><path fill="#ccc" d="M8 1a7 7 0 1 0 0 14A7 7 0 0 0 8 1zm.953 10h-1.47V8.132L6.012 9.971l-1.47-1.839V11H3.071V6h1.471l1.471 1.838L7.483 6h1.471l-.001 5zm2.55 0L9.297 8.573h1.471V6h1.471v2.573h1.471L11.503 11z"/></svg>
